!!!COM: Ernest Chausson
!!!CNT: Francais
!!!TXO: Francais
!!!OTL: La dernie\re feuille
!!!OPS: Op. 2
!!!ONM: No. 4
!!!LYR: Theophile Gautier
!!!ENC: Jacob Pegg
!!!YOR: 20 Songs for Voice and Piano, International Music Company, New York City, January, 1952
!!!ODT: 1880/
!!NB: Vocal melody and text only encoded.
**kern	**silbe
*clef G2	*
*k[]	*
*M2/4	*
=3	=3
{8e	{Dans
8e	la
8f#	for-
8f#	-e^t
=4	=4
(8a	chau-
8g)	-ve
8fn	et
8e	rouil-
=5	=5
4e	-le/-
8d#}	-e}
8r	.
=6	=6
2r	.
=7	=7
{8b	{Il
8b	ne
8cc#	res-
8cc#	-te
=8	=8
4b	plus
8e	au
8e	ra-
=9	=9
4f#}	-meau}
4r	.
=10	=10
{8f#	{Qu'u
8f#	ne
8e#	pau-
8e#	-vre
=11	=11
4f#	feuille
8a	ou-
8a	-bli-
=12	=12
2e	-e/-
=13	=13
4d}	e,}
4r	.
=14	=14
{4b	{Rien
8f#	qu'u-
8f#	-ne
=15	=15
2d#	feuille
=16	=16
4B	et
8B	qu'un
8B	oi-
=17	=17
[4f#	-seau
8f#]}	|}
8r	.
=18	=18
2r	.
=19	=19
{4.f#	{Il
8f#	ne
=20	=20
4a	res-
4fn	-te
=21	=21
4e	plus
8.e	en
16e	mon
=22	=22
[4e	a-
8e]}	-me}
8r	.
=23	=23
8r	.
{8a	{Qu'un
8a	seul
8a	a-
=24	=24
4.cc	-mour
8cc	pour
=25	=25
8cc	y
8b	chan-
[4b	-ter;
=26	=26
4b]}	|}
4r	.
=27	=27
{4.a	{Mais
8e	le
=28	=28
4f	vent
4d	d'au-
=29	=29
8a	-tom-
8a}	-ne,}
8r	.
{8e	{qui
=30	=30
4f	bra-
4f}	-me,}
=31	=31
8r	.
{8cc	{Ne
8cc	per-
8cc	-met
=32	=32
[2d#	pas
=33	=33
8d#]	|
8c	de
8B	l'e/-
8c	-cou-
=34	=34
4B}	-ter.}
4r	.
=35	=35
8r	.
{8e	{L'ois-
8f	-eau
8f	s'en
=36	=36
4e	va,
4r	.
=37	=37
8r	.
8c	la
8B	feuil-
8A	-le
=38	=38
4A	tom-
4A}	-be}
=39	=39
8r	.
{8a	{l'am-
8a	-our
8a	s'e/te-
=40	=40
[2a	-int,
=41	=41
8a]	|
8a	car
8a	c'est
8a	l'hi-
=42	=42
[2a	-ver.
=43	=43
8a]}	|}
8r	.
4r	.
=44	=44
8r	.
{8e	{Pe-
8f	-tit
8f	oi-
=45	=45
8e	-seau,
8e	viens
8a	sur
8f	ma
=46	=46
4e	tom-
[4e	-be
=47	=47
4e]}	|}
{4f	{Chan-
=48	=48
[2e	-ter
=49	=49
4e]	|
4f	quand
=50	=50
4e	l'ar-
4f	-bre
=51	=51
4e	se-
4f	-ra
=52	=52
[2e	vert.
=53	=53
2e_	|
=54	=54
4e]}	|}
4r	.
*-	*-
